X: 80
T: No_19_See_My_Scalp_Hanging_on_a_Pole.krn
N: Derived from No_19_See_My_Scalp_Hanging_on_a_Pole.krn
%%abc-version 2.0
%%abcx-abcm2ps-target-version 5.9.1 (29 Sep 2008)
%%abc-creator hum2abc beta
%%abcx-conversion-date 2019/03/15 08:37:56
%%humdrum-veritas 1941819715
%%humdrum-veritas-data 386162904
%%linebreak <none>
%%barnumbers 0
L: 1/8
M: 2/4
K: Db clef=bass
[K:clef=bass][M:2/4]D4 | 
CB,B,2 | 
D4 | 
CB, B,3/F,/ ||  
[M:3/4]B,3/B,/ B,3/B,/ B,3/F,/ | 
B,B,B,4 | 
B,3/B,/ F,3/F,/ =E,3/E,/ | 
F,3/F,/F,2z2 ||  
[M:2/4]D4 | 
CB,B,2 | 
D4 | 
CB, B,3/F,/ ||  
[M:3/4]B,3/B,/ B,3/B,/ B,3/F,/ | 
B,B,B,4 | 
B,3/B,/ F,3/F,/=E,2 ||  
[M:2/4]F,3/F,/F,2 | 
z2F,3/F,/ ||  
[M:3/4]B,3/B,/ B,3/B,/ B,3/F,/ ||  
[M:2/4]B,4 ||  
[M:3/4]B,3/B,/ F,3/F,/ =E,3/E,/ ||  
[M:2/4]F,3/F,/F,2 | 
z2F,3/F,/ ||  
[M:3/4]B,3/B,/ B,3/B,/ B,3/F,/ ||  
[M:2/4]B,4 ||  
[M:3/4]B,3/B,/ F,3/F,/ =E,3/E,/ | 
F,3/F,/F,2z2 |]  



